svg/300/outlined/add_circle.svg

<svg xmlns="http://www.w3.org/2000/svg" width="48" height="48" viewBox="0 -960 960 960"><path d="M459.539-290.001h45.383v-164.461h165.077v-45.384H504.922v-170.153h-45.383v170.153H290.001v45.384h169.538v164.461Zm20.794 190q-78.955 0-147.897-29.92t-120.755-81.71q-51.814-51.791-81.747-120.777t-29.933-148.025q0-78.655 29.92-147.864t81.71-120.522q51.791-51.314 120.777-81.247t148.025-29.933q78.655 0 147.864 29.92t120.522 81.21q51.314 51.291 81.247 120.629 29.933 69.337 29.933 147.907 0 78.955-29.92 147.897t-81.21 120.571q-51.291 51.629-120.629 81.746-69.337 30.118-147.907 30.118Zm.167-45.384q139.192 0 236.654-97.769 97.461-97.769 97.461-237.346 0-139.192-97.274-236.654Q620.067-814.615 480-814.615q-139.077 0-236.846 97.274T145.385-480q0 139.077 97.769 236.846T480.5-145.385ZM480-480Z"/></svg>

<svg xmlns="http://www.w3.org/2000/svg" width="48" height="48" viewBox="0 -960 960 960"><path d="M459.54-290h45.38v-164.46H670v-45.39H504.92V-670h-45.38v170.15H290v45.39h169.54V-290Zm20.79 190q-78.95 0-147.89-29.92-68.95-29.92-120.76-81.71-51.81-51.79-81.75-120.78Q100-401.39 100-480.43q0-78.66 29.92-147.87 29.92-69.21 81.71-120.52 51.79-51.31 120.78-81.25Q401.39-860 480.43-860q78.66 0 147.87 29.92 69.21 29.92 120.52 81.21 51.31 51.29 81.25 120.63Q860-558.9 860-480.33q0 78.95-29.92 147.89-29.92 68.95-81.21 120.57-51.29 51.63-120.63 81.75Q558.9-100 480.33-100Zm.17-45.39q139.19 0 236.65-97.76 97.46-97.77 97.46-237.35 0-139.19-97.27-236.65-97.27-97.46-237.34-97.46-139.08 0-236.85 97.27-97.76 97.27-97.76 237.34 0 139.08 97.76 236.85 97.77 97.76 237.35 97.76ZM480-480Z"/></svg>
